assets/images/Vector(7).svg

<svg width="20" height="20" viewBox="0 0 20 20" fill="none" xmlns="http://www.w3.org/2000/svg">
<path d="M7.03628 12.9637C6.75878 14.0849 6.6419 15.2318 6.68253 16.3943C6.70378 17.0124 6.76503 17.623 6.95628 18.2118C7.32629 19.3499 8.43756 20.1237 9.48507 19.9837C10.6276 19.8312 11.4932 18.8512 11.4638 17.548C11.407 15.033 13.2064 12.6587 15.8664 12.2412C16.8308 12.0899 17.8327 12.1899 18.8177 12.1805C19.7546 12.1718 19.9971 11.9255 19.9984 10.9449C20.0009 7.71243 20.0002 4.48056 19.9984 1.24807C19.9984 0.308073 19.7183 0.00619698 18.8015 0.00494766C13.9439 -0.000677109 9.08632 -0.00255203 4.22874 0.00494766C2.94872 0.00682259 2.05434 0.760571 1.76871 2.04432C1.20807 4.56181 0.646816 7.07868 0.0980583 9.59868C-0.334448 11.5849 0.689317 12.8924 2.66497 12.8974C4.05999 12.9012 5.45439 12.9005 6.84941 12.9043C6.89503 12.9043 6.94066 12.9324 7.03691 12.9649L7.03628 12.9637ZM9.02381 1.93057C10.612 1.93057 12.2001 1.94807 13.7876 1.91994C14.2489 1.91182 14.3945 2.02619 14.3895 2.52182C14.3633 4.96556 14.3383 7.41056 14.3995 9.85305C14.4195 10.6524 14.2089 11.073 13.4883 11.4068C11.2745 12.4324 10.0788 14.2049 10.0307 16.7355C10.0163 17.478 9.6957 17.9449 9.14757 17.9274C8.50068 17.9068 8.26443 17.4143 8.14568 16.853C7.84505 15.4343 8.02567 14.0643 8.58381 12.7412C9.03881 11.6624 8.95694 11.533 7.7838 11.5318C6.0994 11.5299 4.415 11.548 2.73122 11.5262C1.83433 11.5143 1.56933 11.1499 1.75871 10.2712C2.29997 7.75056 2.85497 5.23306 3.39061 2.71119C3.51436 2.12744 3.82249 1.91057 4.405 1.92182C5.94439 1.95119 7.48442 1.93182 9.02444 1.93119L9.02381 1.93057ZM16.0733 6.11181C16.0802 6.11181 16.0877 6.11181 16.0945 6.11181C16.0945 5.22369 16.0945 4.33619 16.0945 3.44807C16.0945 1.90432 16.0945 1.92744 17.5921 1.91369C18.0764 1.90932 18.2021 2.05932 18.1971 2.53557C18.1758 4.60744 18.1877 6.67931 18.1877 8.75118C18.1877 10.3331 18.1877 10.3093 16.6383 10.3049C16.1383 10.3037 16.0527 10.1162 16.0633 9.66305C16.0908 8.47993 16.0727 7.29556 16.0727 6.11181H16.0733Z" fill="#7E7E7E"/>
</svg>

<svg xmlns="http://www.w3.org/2000/svg" width="20" height="20" fill="none"><path fill="#7E7E7E" d="M7.036 12.964a12.4 12.4 0 0 0-.353 3.43c.02.618.082 1.229.273 1.818.37 1.138 1.482 1.912 2.53 1.772 1.142-.153 2.007-1.133 1.978-2.436-.057-2.515 1.742-4.89 4.402-5.307.965-.151 1.967-.051 2.952-.06.937-.01 1.18-.255 1.18-1.236q.004-4.849 0-9.697c0-.94-.28-1.242-1.197-1.243a5394 5394 0 0 0-14.572 0c-1.28.002-2.175.756-2.46 2.04C1.209 4.561.647 7.078.099 9.598c-.433 1.986.59 3.293 2.566 3.298 1.395.004 2.79.003 4.184.007.046 0 .092.028.188.06M9.024 1.93c1.588 0 3.176.017 4.764-.011.46-.008.607.106.601.602-.026 2.444-.05 4.889.01 7.331.02.8-.19 1.22-.91 1.554-2.215 1.025-3.41 2.798-3.458 5.328-.015.743-.335 1.21-.883 1.192-.647-.02-.884-.513-1.002-1.074-.301-1.419-.12-2.789.438-4.112.455-1.079.373-1.208-.8-1.21-1.685-.001-3.369.017-5.053-.005-.897-.012-1.162-.376-.972-1.255.541-2.52 1.096-5.038 1.632-7.56.123-.584.431-.8 1.014-.79 1.54.03 3.08.01 4.62.01zm7.05 4.18h.02V3.449c0-1.544 0-1.52 1.498-1.534.484-.005.61.145.605.622-.021 2.071-.01 4.143-.01 6.215 0 1.582 0 1.558-1.549 1.554-.5-.001-.585-.189-.575-.642.028-1.183.01-2.367.01-3.551"/></svg>
